X:1
T:Der Gondelfahrer
T:Franz Schubert Johann Baptist Mayrhofer
T: 
T:op. 28
T:Der Gondelfahrer
T: 
T: 
T: 
T: 
T: 
T: 
T: 
T: 
T: 
T: 
T: 
C:Franz Schubert
C:Johann Baptist Mayrhofer
Z:Johann Baptist Mayrhofer
Z:
%%score [ 1 2 3 4 ]
L:1/8
Q:1/4=75
M:3/4
K:C
V:1 treble-8 transpose=-12 nm="P1" snm="T. 1"
V:2 treble-8 transpose=-12 nm="P2" snm="T. 2"
V:3 bass nm="P3" snm="B. 1"
V:4 bass nm="P4" snm="B. 2"
V:1
 x6 | x6 | x6 | x6 | x6 | x6 |"^molto"!p! z2 z2 z G | c3 c cc | (c/B/d/c/) B3 c | d3 d dd | %10
w: ||||||Es|tan- zen Mond und|Ster- * * * ne den|flücht'- gen Gei- ster-|
 (d/c/e/d/ c3) G | e3!<(! e f!<)!g |!>(! g2!>)! fe dc | B!<)!!<(! (c/d/)!>)!!>(! e3 d | c2 z2 z c | %15
w: reih'n, * * * * wer|wird von Er- den-|sor- gen be- fan- gen|im- mer, _ im- mer|sein? Es|
 f3 f ff | (f/e/g/f/) e3 e | f3 f ff | (f/e/g/f/ e2)!<(! (f!<)!g) |!>(! g3 f ed!>)! | %20
w: tan- zen Mond und|Ster- * * * ne den|flücht'- gen Gei- ster-|reih'n, * * * * wer *|wird von Er- den-|
 d2 e"^poco rit."g!<(! e!<)!c | (c/a/) (g/f/)!>(! e2!>)! d2 |"^a tempo" c2 z2 z2 | x6 | x6 | %25
w: sor- gen be- fang- en|im- * mer, _ im- mer|sein?|||
 z2 z2 z d | (d/e/) (e/d/) dd (d/e/) (e/d/) |!<(! (d/!<)!g/)!>(!^f/!>)!e/ (d/c/) (B/c/) dB/d/ | %28
w: Du|kannst _ in * Mon- des- strah- * len *|nun, _ mei- ne Bar- * ke, * wal- len, du|
 (d/e/) (e/d/) dd (d/e/) (e/d/) |!<(! (d/!<)!g/)!>(!^f/!>)!e/ (d/c/) (B/c/) dB/d/ | %30
w: kannst _ in * Mon- des- strah- * len *|nun, _ mei- ne Bar- * ke, * wal- len, und|
"^cresc." (e/f/)!<(! (f/e/) (e/!<)!f/) (f/e/) (e/a/) (a/g/) | (g/^f/) (e/d/) ef g>!mf!d | %32
w: al- * ler * Schran- * ken * los * wiegt _|dich * des * Mee- res Schoß, und|
"^cresc." (e/f/)!<(! (f/e/) (e/!<)!f/) (f/e/) (e/a/) (a/g/) | %33
w: al- * ler * Schran- * ken * los * wiegt _|
 (g/^f/) (e/f/)!f! g"^poco rall."a!pp! g2 |"^a tempo" z z/ d/ (d/e/) (e/d/) dd | %35
w: dich * des * Mee- res Schoß;|in Mon- * des- * strah- len|
 (d/e/)d/c/ (B/g/) (^f/e/) dB | z z/ d/ (d/e/) (e/d/) dd | %37
w: nun, * mei- ne Bar- * ke, * wal- len,|in Mon- * des- * strah- len|
 (d/e/)d/c/ (B/g/) (^f/e/) d"^cresc. sempre"B | z z/ d/!<(! (e/f/) (f/!<)!e/) (e/a/) (a/g/) | %39
w: nun, _ mei- ne Bar- * ke, * wal- len,|der Schran- * ken * los * wiegt _|
 (g/^f/) (e/d/) ef g2 | z z/ d/!<(! (e/f/) (f/!<)!e/) (e/"^molto rit."a/) (a/g/) | %41
w: dich * des * Mee- res Schoß,|der Schran- * ken _ los * wiegt _|
 (g/^f/) (e/!ff!d/) !>!e!>!f !>!g!>!a |"^a tempo" g4 z2 | x6 | x6 | x6 | x6 | z2 z2!p! z c | %48
w: dich, * wiegt _ dich des Mee- res|Schoß.|||||Vom|
 !>!c3 c (c/_B/) (_A/B/) | !>!c2 cc (c/_B/) (_A/B/) | !>!c3 c!>(! c2-!>)! | c2 z2 z2 | %52
w: Mar- kus- tur- * me _|tön- te der Spruch _ der _|Mit- ter- nacht,||
"^Tempo assai tranquillo"[Q:1/4=70] z2 z2 z!ppp! c | f3 f ff | (f/e/g/f/) e3 e | f3 f ff | %56
w: sie|schlum- mern fried- lich|al- * * * le, sie|schlum- mern fried- lich|
 (f/e/g/f/) e2!<(! (f!<)!g) |!>(! g3 f ed!>)! | c2 z2!pp! z c | f3 a gf | (f/e/g/f/) e3 e | %61
w: al- * * * le, und *|nur der Schif- fer|wacht, sie|schlum- mern fried- lich|al- * * * le, sie|
 f3 a gf |!<(! (f/e/g/!<)!f/) e"^cresc. riten."g e!<(!c | (c/!<)!a/) (g/f/) e2!>)!!>(! d2 | %64
w: schlum- mern fried- lich|al- * * * le, und nur, und|nur * der * Schif- fer|
"^a tempo" c4 z!p! g |!<(! g7/2 g/ g>!<)!a |!>(! g4- g!>)!!pp!e |"^riten." f7/2 e/ f>!<(!B!<)! | %68
w: wacht, und|nur der Schif- fer|wacht, * und|nur der Schif- fer|
"^a tempo"!>(! c6-!>)! | c2 z2 z2 | z6 |] %71
w: wacht.|||
V:2
 x6 | x6 | x6 | x6 | x6 | x6 |"^molto"!p! z2 z2 z G | G3 G GG | G2 G3 G | G3 G GG | G4- GG | %11
w: ||||||Es|tan- zen Mond und|Ster- ne den|flücht'- gen Gei- ster-|reih'n, * wer|
 c3!<(! c B!<)!_B |!>(! A2!>)! AA AA | G!<)!!<(!G!>)!!>(! G3 G | c3 c cc | (c/B/d/c/) B3 B | %16
w: wird von Er- den-|sor- gen be- fan- gen|im- mer sein? Es|tan- zen Mond und|Ster- * * * ne den|
 c3 c cc | (c/B/d/c/ B3) B | c>c c2!<(! (B!<)!_B) |!>(! A3 (A/B/) cB!>)! | %20
w: flücht'- gen Gei- ster-|reih'n, * * * * den|Gei- ster- reih'n, wer *|wird von _ Er- den-|
 B2 c"^poco rit."c!<(! _B!<)!B | (A/f/) (e/d/)!>(! c2!>)! B2 |"^a tempo" c2 z2 z2 | x6 | x6 | %25
w: sor- gen be- fan- gen|im- * mer, _ im- mer|sein?|||
 z2 z2 z B | cc cc cc |!<(! (B/e/)!<)!!>(!d/!>)!c/ (B/A/) (G/A/) BG/B/ | cc cc cc | %29
w: Du|kannst in Mon- des- strah- len|nun, _ mei- ne Bar- * ke, * wal- len, du|kannst in Mon- des- strah- len|
!<(! (B/!<)!e/)!>(!d/!>)!c/ (B/A/) (G/A/) BG/B/ |"^cresc." d!<(!d d!<)!d dc | cc cc B>!mf!B | %32
w: nun, _ mei- ne Bar- * ke, * wal- len, und|al- ler Schran- ken los wiegt|dich des Mee- res Schoß, und|
"^cresc." d!<(!d d!<)!d dc | cc!f! d"^poco rall."^f g>!pp!B |"^a tempo" (c/d/) (d/c/) cc cc | %35
w: al- ler Schran- ken los wiegt|dich des Mee- res Schoß; du|kannst _ in * Mon- des- strah- len|
 (B/g/)^f/e/ (d/e/) (d/c/) BG/B/ | (c/d/) (d/c/) cc cc | %37
w: nun, * mei- ne Bar- * ke, * wal- len, du|kannst _ in * Mon- des- strah- len|
 (B/g/)^f/e/ (d/e/) (d/c/) BG/"^cresc. sempre"B/ | (d/e/) (e/d/)!<(! dd!<)! dc | cc cc B>B | %40
w: nun, * mei- ne Bar- * ke, * wal- len, und|al- * ler * Schran- ken los wiegt|dich des Mee- res Schoß, und|
 (d/e/) (e/d/)!<(! dd!<)!"^molto rit." dc | c!ff!c !>!c!>!c !>!c!>!c |"^a tempo" B4 z2 | x6 | x6 | %45
w: al- * ler * Schran- ken los wiegt|dich, wiegt dich des Mee- res|Schoß.|||
 x6 | x6 | z2 z2!p! z _A | !>!_A3 A AA | !>!_A2 AA AA | !>!_A3 A!>(! A2-!>)! | A2 z2!ppp! z c | %52
w: ||Vom|Mar- kus- tur- me|tön- te der Spruch der|Mit- ter- nacht,|* sie|
 c3 c cc | (c/B/d/c/) B3 B | c3 c cc | (c/B/d/c/) B3 B | c2 c2!<(! (B!<)!_B) | %57
w: schlum- mern fried- lich|al- * * * le, sie|schlum- mern fried- lich|al- * * * le, ja|al- le, und *|
!>(! A3 (A/B/) cB!>)! | cc ce!pp! dc | (c/B/d/c/) B3 B | c3 e dc | (c/B/d/c/) B3 B | %62
w: nur der * Schif- fer|wacht, sie schlum- mern fried- lich|al- * * * le, sie|schlum- mern fried- lich|al- * * * le, ja|
!<(! c2!<)! c"^cresc. riten."c _B!<(!B | (A/!<)!f/) (e/d/) c2!>)!!>(! B2 |"^a tempo" G4 z!p! e | %65
w: al- le, und nur, und|nur * der * Schif- fer|wacht, und|
!<(! f7/2 e/ f>!<)!f |!>(! e4- e!>)!!pp!c |"^riten." d7/2 ^c/ d>!<(!G!<)! |"^a tempo"!>(! G6-!>)! | %69
w: nur der Schif- fer|wacht, * und|nur der Schif- fer|wacht.|
 G2 z2 z2 | z6 |] %71
w: ||
V:3
 x6 | x6 | x6 | x6 | x6 | x6 |"^molto"!p! z2 z2 z G, | E,E, E,E, E,E,/E,/ | F,F, F,F, F,F, | %9
w: ||||||Es|tan- zen Mond und Ster- ne den|flücht'- gen Gei- ster- reih'n, es|
 F,F, F,F, F,F,/F,/ | E,E, E,E, E,E, | G,G, G,!<(!G, G,!<)!G,/G,/ |!>(! G,G,!>)! G,G,/G,/ F,E, | %13
w: tan- zen Mond und Ster- ne den|flücht'- gen Gei- ster- reih'n, wer|wird von Er- den- sor- gen, von|Er- den- sor- gen be- fan- gen|
 D,!<)!!<(! (E,/F,/)!>(! G,!>)!G, G,F, | E,E, E,E, E,E,/E,/ | G,G, G,G, G,G, | G,G, G,G, G,G,/G,/ | %17
w: im- mer, _ im- mer sein? Es|tan- zen Mond und Ster- ne den|flücht'- gen Gei- ster- reih'n, es|tan- zen Mond und Ster- ne den|
 G,G, G,G, G,G, | G,G, G,G,!<(! G,!<)!G, |!>(! G,!>)!G, G,G, G,G,/G,/ | %20
w: flücht'- gen Gei- ster- reih'n, den|flücht'- gen Gei- ster- rieh'n, wer|wird von Er- den- sor- gen, von|
 G,G, G,"^poco rit."G,/G,/!<(! G,!<)!E, | F,A,/A,/!>(! G,G,!>)! G,G, |"^a tempo" E,2 z2 z2 | x6 | %24
w: Er- den- sor- gen be- fan- gen|im- mer, be- fan- gen im- mer|sein?||
 x6 | z2 z2 z G, | A,^F, A,F, A,F, |!<(! B,!<)!!>(!G,/!>)!G,/ B,D B,G,/G,/ | A,^F, A,F, A,F, | %29
w: |Du|kannst in Mon- des- strah- len|nun, mei- ne Bar- ke, wal- len, du|kannst in Mon- des- strah- len|
!<(! B,!<)!!>(!G,/!>)!G,/ B,D B,G,/G,/ |"^cresc." B,!<(!^G, B,!<)!G, CA, | %31
w: nun, mei- ne Bar- ke, wal- len, und|al- ler Schran- ken los wiegt|
 A, (G,/^F,/) G,A, G,>!mf!G, |"^cresc." B,!<(!^G, B,!<)!G, CA, | %33
w: dich des * Mee- res Schoß, und|al- ler Schran- ken los wiegt|
 A, (G,/A,/)!f! B,"^poco rall."C B,>!pp!G, |"^a tempo" A,^F, A,F, A,F, | B,G,/G,/ B,G, B,G,/G,/ | %36
w: dich des * Mee- res Schoß; du|kannst in Mon- des- strah- len|nun, mei- ne Bar- ke, wal- len, du|
 A,^F, A,F, A,F, | B,G,/G,/ B,G, B,G,/"^cresc. sempre"G,/ | B,^G,!<(! B,G,!<)! CA, | %39
w: kannst in Mon- des- strah- len|nun, mei- ne Bar- ke, wal- len, und|al- ler Schran- ken los wiegt|
 A, (G,/^F,/) G,A, G,>G, | B,^G,!<(! B,G,!<)!"^molto rit." CA, | %41
w: dich des * Mee- res Schoß, und|al- ler Schran- ken los wiegt|
 A, (G,/!ff!^F,/) !>!G,!>!A, !>!G,!>!F, |"^a tempo" G,4 z2 | x6 | x6 | x6 | x6 | z2 z2!p! z C, | %48
w: dich, wiegt * dich des Mee- res|Schoß.|||||Vom|
 !>!C,3 C, (C,/_B,,/) (_A,,/B,,/) | !>!C,2 C,C, (C,/_B,,/) (_A,,/B,,/) | !>!C,3 C,!>(! C,2-!>)! | %51
w: Mar- kus- tur- * me _|tön- te der Spruch _ der _|Mit- ter- nacht,|
 C,2 z2!ppp! z C, | E,E, E,E, E,E,/E,/ | G,G, G,G, G,G,/G,/ | G,G, G,G, G,G,/G,/ | %55
w: * sie|schlum- mern fried- lich al- le, sie|schlum- mern fried- lich al- le, sie|schlum- mern fried- lich al- le, sie|
 G,G, G,G, G,G,/G,/ | G,G, G,G,!<(! G,!<)!G, |!>(! G,!>)!G, G,G, G,G, | E,E, E,E,!pp! E,E,/E,/ | %59
w: schlum- mern fried- lich al- le, und|nur der Schif- fer wacht, und|nur der Schif- fer wacht, sie|schlum- mern fried- lich al- le, sie|
 G,G, G,G, G,G,/G,/ | G,G, G,G, G,G,/G,/ | G,G, G,G, G,G,/G,/ | %62
w: schlum- mern fried- lich al- le, sie|schlum- mern fried- lich al- le, sie|schlum- mern fried- lich al- le, und|
!<(! G,G,!<)! G,"^cresc. riten."G, G,!<(!E,!<)! | F,A, G,G,/G,/!>(! G,!>)!G, | %64
w: nur der Schif- fer wacht, und|nur der Schif- fer, der Schif- fer|
"^a tempo" E,4 z!p! C |!<(! D7/2 ^C/ D>!<)!D |!>(! C4- C!>)!!pp!C | %67
w: wacht, und|nur der Schif- fer|wacht, * und|
"^riten." B,7/2 B,/ B,>!<(!F,!<)! |"^a tempo"!>(! E,6-!>)! | E,2 z2 z2 | z6 |] %71
w: nur der Schif- fer|wacht.|||
V:4
 x6 | x6 | x6 | x6 | x6 | x6 |"^molto"!p! z2 z2 z G,, | C,G,, C,G,, C,G,,/G,,/ | D,G,, D,G,, D,C, | %9
w: ||||||Es|tan- zen Mond und Ster- ne den|flücht'- gen Gei- ster- reih'n, es|
 B,,G,, B,,G,, B,,G,,/G,,/ | C,G,, C,G,, C,G,, | C,G,, C,!<(!G,, D,!<)!^C,/C,/ | %12
w: tan- zen Mond und Ster- ne den|flücht'- gen Gei- ster- reih'n, wer|wird von Er- den- sor- gen, von|
!>(! D,G,,!>)! D,E,/E,/ F,^F, | G,!<)!!<(!G,,!>(! G,!>)!G,, G,, (A,,/B,,/) | %14
w: Er- den- sor- gen be- fan- gen|im- mer, im- mer sein? Es *|
 C,G,, C,G,, C,G,,/G,,/ | D,G,, D,G,, D,G,, | C,G,, C,G,, C,G,,/G,,/ | D,G,, D,G,, D,G,, | %18
w: tan- zen Mond und Ster- ne den|flücht'- gen Gei- ster- reih'n, es|tan- zen Mond und Ster- ne den|flücht'- gen Gei- ster- reih'n, den|
 C,G,, C,G,,!<(! D,!<)!^C, |!>(! D,!>)!G,, D,D, E,G,/G,,/ | %20
w: flücht'- gen Gei- ster- rieh'n, wer|wird von Er- den- sor- gen, von|
 C,G,, C,"^poco rit."E,/E,/!<(! C,!<)!C, | F,F,,/F,,/!>(! G,,G,,!>)! G,,G,, |"^a tempo" C,2 z2 z2 | %23
w: Er- den- sor- gen be- fan- gen|im- mer, be- fan- gen im- mer|sein?|
 x6 | x6 | z2 z2 z D, | ^F,D, F,D, F,D, |!<(! G,!<)!!>(!D,/!>)!D,/ G,D, G,D,/D,/ | %28
w: ||Du|kannst in Mon- des- strah- len|nun, mei- ne Bar- ke, wal- len, du|
 ^F,D, F,D, F,D, |!<(! G,!<)!!>(!D,/!>)!D,/ G,D, G,D,/D,/ |"^cresc." ^G,!<(!D, G,!<)!D, A,D, | %31
w: kannst in Mon- des- strah- len|nun, mei- ne Bar- ke, wal- len, und|al- ler Schran- ken los wiegt|
 D,D, D,D, G,,>!mf!D, |"^cresc." ^G,!<(!D, G,!<)!D, A,D, | D,D,!f! D,"^poco rall."D, G,,>!pp!D, | %34
w: dich des Mee- res Schoß, und|al- ler Schran- ken los wiegt|dich des Mee- res Schoß; du|
"^a tempo" ^F,D, F,D, F,D, | G,D,/D,/ G,D, G,D,/D,/ | ^F,D, F,D, F,D, | %37
w: kannst in Mon- des- strah- len|nun, mei- ne Bar- ken, wal- len, du|kannst in Mon- des- strah- len|
 G,D,/D,/ G,D, G,D,/"^cresc. sempre"D,/ | ^G,D,!<(! G,D,!<)! A,D, | D,D, D,D, G,,>D, | %40
w: nun, mei- ne Bar- ken, wal- len, und|al- ler Schran- ken los wiegt|dich des Mee- res Schoß, und|
 ^G,D,!<(! G,D,!<)!"^molto rit." A,D, | D,!ff!D, !>!D,!>!D, !>!D,!>!D, |"^a tempo" G,,4 z2 | x6 | %44
w: al- ler Schran- ken los wiegt|dich, wiegt dich des Mee- res|Schoß.||
 x6 | x6 | x6 | z2 z2!p! z _A,, | !>!_A,,3 A,, A,,A,, | !>!_A,,2 A,,A,, A,,A,, | %50
w: |||Vom|Mar- kus- tur- me|tön- te der Spruch der|
 !>!_A,,3 A,,!>(! A,,2-!>)! | A,,2 z2!ppp! z _A,, | G,,C, G,,C, G,,C,/C,/ | %53
w: Mit- ter- nacht,|* sie|schlum- mern fried- lich al- le, sie|
 D,G,, D,G,, D,G,,/G,,/ | G,,C, G,,C, G,,C,/C,/ | D,G,, D,G,, D,G,,/G,,/ | %56
w: schlum- mern fried- lich al- le, sie|schlum- mern fried- lich al- le, sie|schlum- mern fried- lich al- le, und|
 C,G,, C,G,,!<(! D,!<)!^C, |!>(! D,!>)!G,, D,D, E,G, | C,G,, C,G,,!pp! C,G,,/G,,/ | %59
w: nur der Schif- fer wacht, und|nur der Schif- fer wacht, sie|schlum- mern fried- lich al- le, sie|
 D,G,, D,G,, D,G,,/G,,/ | C,G,, C,G,, C,G,,/G,,/ | D,G,, D,G,, D,G,,/G,,/ | %62
w: schlum- mern fried- lich al- le, sie|schlum- mern fried- lich al- le, sie|schlum- mern fried- lich al- le, und|
!<(! C,G,,!<)! C,"^cresc. riten."E, C,!<(!C,!<)! | F,F,, G,,G,,/G,,/!>(! G,,!>)!G,, | %64
w: nur der Schif- fer wacht, und|nur der Schif- fer, der Schif- fer|
"^a tempo" C,4 z!p! C |!<(! B,7/2 B,/ B,>!<)!B, |!>(! C4- C!>)!!pp!G, | %67
w: wacht, und|nur der Schif- fer|wacht, * und|
"^riten." G,7/2 G,/ G,>!<(!G,!<)! |"^a tempo"!>(! C,6-!>)! | C,2 z2 z2 | z6 |] %71
w: nur der Schif- fer|wacht.|||

